X:15
T:Milto(n?) Hornpipe. JBu.15
T:Gipsey Hornpipe,aka. JBu.15
O:England,South Yorkshire
S:Joshua Burnett’s MS,c1835,S.Yorkshire
M:C
L:1/8
Q:1/2=90
R:.hornpipe
N:’n’ definitely missing from title, but perh. should be ‘Milton’
N:Milton is a local place-name, a part of Hoyland near Barnsley
N:Not the same tune as ‘Milton Hp’ of the Leadley MSS
Z:vmp.R.Greig.2010
K:D
DFAc dcde|fdBd BAGF|GABc dcde|fdBG F2E2|
DFAc dcde|fdBd BAGF|GABc dcde|fdec d2z2:|
|:A2|FADA FADA|FADA BAGF|GBEB GBEB|GBEB cBAG|
FADA FADA|FADA BAGF|GABc dcde|fdec d2d2:|

